X: 142107
Q: "Hornpipe."
M: C
L: 1/8
K: D
(F>G) |\
c>ec>A B>dB>^G | A2 (3AAA A2 :|
(c>d) |\
e3f e>cA>c | e>ca>f e>cA>c |\
d>fd>B c>ec>A | B2 (3BBB B2 (3(ABc) |\
d3B A>FD>F | G>AB>c d2(c>B) |\


